X:61
T:Paddy Carrol
O:No 61 Wm Clarke of Feltwell MS  1858
I:abc2nwc
M:6/8
L:1/8
K:G
d/2c/2|BGG BGG|BcB BAG|dBd gdB|ABA A2d/2c/2|
BGG BGG|BcB BAG|def gdB|GAG G2:|
|:g/2a/2|bgg aff|gfe dBG|bgg aff|eb^c' d'2g/2a/2|
bgg aff|gfe dBd|def gdB|GAG G2:|

